packages/icons/src/components/Icon/assets/small-outline/profile.svg

<svg width="16" height="16" viewBox="0 0 16 16" fill="none" xmlns="http://www.w3.org/2000/svg">
<path fill-rule="evenodd" clip-rule="evenodd" d="M8.00095 2.44828C7.06777 2.44828 6.31129 3.20476 6.31129 4.13793C6.31129 5.0711 7.06777 5.82759 8.00095 5.82759C8.93412 5.82759 9.6906 5.0711 9.6906 4.13793C9.6906 3.20476 8.93412 2.44828 8.00095 2.44828ZM4.86301 4.13793C4.86301 2.4049 6.26791 1 8.00095 1C9.73398 1 11.1389 2.4049 11.1389 4.13793C11.1389 5.87096 9.73398 7.27586 8.00095 7.27586C6.26791 7.27586 4.86301 5.87096 4.86301 4.13793ZM3.93344 12.7646C5.189 13.2721 6.56164 13.5517 8.00115 13.5517C9.44052 13.5517 10.813 13.2721 12.0685 12.7648C11.8017 10.7565 10.0823 9.2069 8.00095 9.2069C5.9197 9.2069 4.20023 10.7565 3.93344 12.7646ZM2.45006 13.2131C2.50211 10.1917 4.96732 7.75862 8.00095 7.75862C11.0346 7.75862 13.4999 10.1918 13.5518 13.2133C13.5568 13.5008 13.3911 13.764 13.1298 13.8839C11.5676 14.6007 9.83001 15 8.00115 15C6.17212 15 4.43439 14.6006 2.87206 13.8837C2.61073 13.7638 2.44511 13.5006 2.45006 13.2131Z" fill="black"/>
</svg>

<svg xmlns="http://www.w3.org/2000/svg" width="16" height="16" fill="none" viewBox="0 0 16 16">
    <path fill="#000" fill-rule="evenodd" d="M8 2.448a1.69 1.69 0 1 0 0 3.38 1.69 1.69 0 0 0 0-3.38m-3.137 1.69a3.138 3.138 0 1 1 6.276 0 3.138 3.138 0 0 1-6.276 0m-.93 8.627c1.256.507 2.629.787 4.068.787 1.44 0 2.812-.28 4.068-.787a4.104 4.104 0 0 0-8.136 0m-1.483.448a5.552 5.552 0 0 1 11.102 0 .72.72 0 0 1-.422.67A12.3 12.3 0 0 1 8 15c-1.829 0-3.567-.4-5.129-1.116a.72.72 0 0 1-.422-.67" clip-rule="evenodd"/>
</svg>
